X:2711
T:Humours of Loughrea, The
O:england
R:reel
S:From Mary Bergin. Some of the variations are from other players.
D:Fintan Vallely.
M:C|
K:G
~G3A BA~A2|bgag gedB|~G3A BAAG|1 ~A3G EGDE:|2 ~A3G EGBd||
g2fg fede|ge~e2 g2ba|ge~e2 edBd|fgfg ~e3f|
g2ge d2Bd|ge~e2 gaba|~g3b a2ge|dgbg aged||
